toolkits/global/packages/global-context/img/icons/arrow-left.svg

<svg height="24" viewBox="0 0 24 24" width="24" xmlns="http://www.w3.org/2000/svg"><path d="m8.46975946 7.11544791-4.17620792 4.17620789c-.39120768.3912077-.39160691 1.0250815.0000316 1.41672l4.1763942 4.1763942c.39122514.3912251 1.01908149.39767 1.40017357.016578.39113009-.3911302.39303639-1.0233711-.00310603-1.4195135l-2.48183446-2.4818345h11.61478958l.1166211-.0067277c.4973387-.0577651.8833789-.4804365.8833789-.9932723s-.3860402-.9355072-.8833789-.9932723l-.1166211-.0067277h-11.61478958l2.4816273-2.48162731c.39282218-.39282216.40056168-1.02197315.01946965-1.40306523-.39113012-.39113012-1.02492687-.3914806-1.41654791.00014045z" fill="#666" fill-rule="evenodd"/></svg>

<?xml version="1.0" encoding="UTF-8"?>
<svg width="24px" height="24px" viewBox="0 0 24 24" version="1.1" xmlns="http://www.w3.org/2000/svg" xmlns:xlink="http://www.w3.org/1999/xlink">
    <!-- Generator: Sketch 63.1 (92452) - https://sketch.com -->
    <title>icon-icon / arrow-left</title>
    <desc>Created with Sketch.</desc>
    <g id="icon-/-arrow-left" stroke="none" stroke-width="1" fill="none" fill-rule="evenodd">
        <path d="M8.46975946,7.11544791 L4.29355154,11.2916558 C3.90234386,11.6828635 3.90194463,12.3167373 4.29358314,12.7083758 L8.46997734,16.88477 C8.86120248,17.2759951 9.48905883,17.28244 9.87015091,16.901348 C10.261281,16.5102178 10.2631873,15.8779769 9.86704488,15.4818345 L7.38521042,13 L19,13 L19.1166211,12.9932723 C19.6139598,12.9355072 20,12.5128358 20,12 C20,11.4871642 19.6139598,11.0644928 19.1166211,11.0067277 L19,11 L7.38521042,11 L9.86683772,8.51837269 C10.2596599,8.12555053 10.2673994,7.49639954 9.88630737,7.11530746 C9.49517725,6.72417734 8.8613805,6.72382686 8.46975946,7.11544791 Z" id="arrow-left" fill="#666666"></path>
    </g>
</svg>
